X:1
T:Astiterunt reges - Victoria
T:#
%%score [ 1 2 3 4 ]
L:1/8
Q:1/4=200
M:none
K:F
V:1 treble nm="Soprano " snm="S"
V:2 treble nm="Alto" snm="A"
V:3 treble-8 nm="Tenor" snm="T"
V:4 bass nm="Bass" snm="B"
V:1
"^Astiterunt reges""^Tomas Luis deVictoria\n(1548-1611)" d16 | d8 c8 | A4 B8 A4 | G16 | %4
w: A-|sti- te-|runt re- ges|ter-|
 ^F4 A4 =B6 B2 |[M:4/2] =B4 c8 c4 | c8 c4 c4 | (B8 A8) | =B16 ||S d16 | c8 B4 d4- | %11
w: rae, et prin- ci-|pes con- ve-|ne- runt in|u\- *|num.|Ad-|ver- sus Do\-|
 (d2 c2 A4 B4) B4 | A8 z8 | z8 z4 d4- | d4 c4 B4 A4 | G4 F4 G8 | A8 z8 | z8 z4 g4- | g4 f4 _e4 d4 | %19
w: * * * * mi-|num,|et|* ad- ver- sus|Chri- stum e-|ius,|et|* ad- ver- sus|
 (c6 B2 A4) G4 | (^F4 G8 F4) | G16!fine! || z8"^Solo" d8- | d8 A8 | =B6 B2 c4 c4 | d8 G4 d4 | %26
w: Chri\- * * stum|e\- * *|ius.|Qua\-|* re|fre- mu- e- runt|gen- tes, et|
 f6 f2 f4 f4- | f4 f4 f4 f4 | _e8 d8 | f8 (e8 | d8 c8- | c4) =B4"^al fine" B16 |] %32
w: po- pu- li me\-|* di- ta- ti|sunt in-|a- *||* ni- a?|
V:2
 B16 | B8 G8 | ^F4 G8 =F4 | (_E4 D8 C4) | D4 ^F4 G6 G2 |[M:4/2] G4 A8 A4 | A8 G4 A4 | (B4 G8 ^F4) | %8
w: A-|sti- te-|runt re- ges|ter\- * *|rae, et prin- ci-|pes con- ve-|ne- runt in|u\- * *|
 G16 || z8 D8 | E4 F4 (G6 A2) | (B2 A2 A8) G4 | A16 | z16 | z4 G8 F4 | _E4 D4 C4 B,4 | A,8 G,8 | %17
w: num.|Ad-|ver- sus Do\- *|* * * mi-|num,||et ad-|ver- sus Chri- stum|e- ius,|
 z4 D8 C4 | B,4 A,4 C4 G,4 | (G6 F2 _E8 | D16) | D16 ||"^Solo" G16 | D8 ^F6 F2 | G4 G4 A8 | %25
w: et ad-|ver- sus Chri- stum|e\- * *||ius.|Qua-|re fre- mu-|e- runt gen-|
 D4 G4 B6 B2 | B4 A8 A4 | A4 A4 (F2 G2 A2 F2 | G4 A4 B4) F4- | F4 (A6 GF E4 | F4 G8) ^F4 | G24 |] %32
w: tes, et po- pu-|li me- di-|ta- ti sunt * * *|* * * in\-|* a\- * * *|* * ni-|a?|
V:3
 g16 | f8 _e8 | d4 d8 d4 | (B6 A2 G8) | A4 d4 d6 d2 |[M:4/2][K:treble-8] d4 f8 f4 | f8 e4 f4 | %7
w: A-|sti- te-|runt re- ges|ter\- * *|rae, et prin- ci-|pes con- ve-|ne- runt in|
 d16 | d16 || z16 | z16 | z16 | z4 f8 e4 | d4 c4 B4 A4 | G8 d8 | z8 z4 g4- | g4 f4 _e4 d4 | %17
w: u-|num.||||et ad-|ver- sus Chri- stum|e- ius,|et|* ad- ver- sus|
 c4 B4 A4 G4 | z8 g6 f2 | _e4 d4 c8- | c4 B4 A8 | G16 || z16 | z16 | z16 | z8 z4 G4 | %26
w: Chri- stum e- ius,|et ad-|ver- sus Chri\-|* stum e-|ius.||||et|
 d6 d2 d4 d4- | d4 d4 d4 d4 | c8 (B8 | d8 c8 | B8) A8 | G24 |] %32
w: po- pu- li me\-|* di- ta- ti|sunt in\-||* ni-|a?|
V:4
 G,16 | B,8 C8 | D4 G,8 D,4 | (G,6 F,2 _E,8) | D,4 D,4 G,6 G,2 |[M:4/2] G,4 F,8 F,4 | F,8 C,4 F,4 | %7
w: A-|sti- te-|runt re- ges|ter\- * *|rae, et prin- ci-|pes con- ven-|ne- runt in|
 (G,8 D,8) | G,16 || z16 | z16 | z16 | z4 D8 C4 | B,4 A,4 G,4 F,4 | _E,8 D,8 | z16 | C12 B,4 | %17
w: u\- *|num.||||et ad-|ver- sus Chri- stum|e- ius,||et ad-|
 A,4 G,4 F,4 _E,4 | D,8 C,8- | C,16 | D,16 | G,16 ||[M:4/2] z16 | z16 | z16 | z16 | z16 | %27
w: ver- sus Chri- stum|e- ius,||e-|ius.||||||
[M:4/2] z16 | z16 | z16 | z16 | z24 |] %32
w: |||||

